X: 1351
T: Tie the Bonnet   #2
R: reel
%S: s:2 b:10(5+5)
B: O'Neill's 1850 #1351
O: Beamish
Z: Trish O'Neil
M: C|
L: 1/8
K: A
"^A"|: A2(Ag) fdec | A2(Ac) BGGB | A2(Ag) fdef | gfge dBGB "^B":: a2(af) gfed |
| cAeA cAce |[1 a2(af) gfef | gfge dBGB :|[2 afge fdef | gfge dBGB |]
